_icons/SVG/373-salamence-shiny.svg

<svg xmlns="http://www.w3.org/2000/svg" width="32" height="32"><path fill="#E56142" d="M19.2 26.381V29s0 1 5.167 1.333c3.422.221 6.094-2.154 7.509-3.783a.483.483 0 00-.075-.712c-4.461 3.955-9.706 2.122-12.601.543z"/><path fill="#FF805D" d="M17 24.958s.842.683 2.2 1.423v-1.646l-2.2.223z"/><path fill="#6CD275" d="M31.318 25.76c-5.176 1.759-9.125.008-10.968-1.141l-1.15.116v1.646c2.896 1.579 8.14 3.412 12.601-.543a.507.507 0 00-.483-.078z"/><path fill="#EB6B48" d="M16 11.123S6.461 9.667 3.766.364c-.127-.438-.723-.497-.922-.087C1.85 2.326 0 6.966 0 13.123c0 6.8 4.995 10.445 6.914 11.594a.497.497 0 00.753-.408c.073-1.88.488-6.421 2.791-7.145C13.375 16.248 16 16.123 16 16.123v-5z"/><path fill="#E56142" d="M16 11.123S25.539 9.667 28.234.364c.127-.438.723-.497.922-.086C30.15 2.326 32 6.966 32 13.123c0 6.8-4.995 10.445-6.914 11.594a.497.497 0 01-.753-.408c-.073-1.88-.488-6.421-2.791-7.145C18.625 16.248 16 16.123 16 16.123v-5z"/><path fill="#78DF7C" d="M27.063 20.594l-1.159-1.739a10.005 10.005 0 00-5.158-3.94l-1.659-.553a1.001 1.001 0 01-.67-.776C18.146 12.071 18 8.937 18 8h-2v22c1.094 0 2.117-.257 3-.763v1.348c0 .265.105.52.293.707l.414.414a.996.996 0 00.707.294h4.98c.359 0 .611-.372.46-.698C25.254 30 23 30 23 30s1-1 1-4c0-1.854-1.145-2.943-2.021-3.505-.089-2.237-.755-3.556-1.796-5.344 1.281.78 2.335 1.885 3.009 3.234l.951 1.903a1.69 1.69 0 002.449.65l.001-.001a1.69 1.69 0 00.47-2.343z"/><path fill="#84ED82" d="M16 8h-2c0 .937-.146 4.071-.416 5.585a.998.998 0 01-.67.776l-1.659.553a9.997 9.997 0 00-5.158 3.94l-1.159 1.739a1.69 1.69 0 00.468 2.344l.001.001a1.69 1.69 0 002.449-.65l.951-1.903c.674-1.349 1.729-2.454 3.009-3.234-1.1 1.888-1.787 3.37-1.812 5.721C9.003 23.497 8 24.497 8 26c0 3 1 4 1 4s-2.254 0-2.854 1.302c-.151.326.101.698.46.698h4.98c.265 0 .52-.105.707-.293l.414-.414a1 1 0 00.293-.707v-1.348c.883.505 1.906.762 3 .762V8z"/><path fill="#D4C9EF" d="M19 23.042a1 1 0 00-1 1v5.644a6.484 6.484 0 002-1.109v-4.536a1 1 0 00-1-.999z"/><path fill="#E3DBF4" d="M14 24.042a1 1 0 00-2 0v4.536a6.497 6.497 0 001.998 1.11l.002-.146v-5.5z"/><path fill="#F1EDFA" d="M5.649 21.985c-.268.302-1.436.984-1.63.662-.166-.276.788-1.508 1.082-1.518.545-.019.706.679.548.856zm.263.141c-.251.155-.471 1.698-.19 1.855.328.184 1.005-.987 1.089-1.382.049-.232-.435-.759-.899-.473zm1.068-1.207c-.238.174-.283.974.009 1.108.342.158.746-.461.798-.861.031-.234-.367-.568-.807-.247zM6.615 32H5c0-.517.804-.875 1.098-.875.545 0 .556.641.517.875zm1.516 0c.043-.474-.194-.733-.56-.754-.495-.029-.755.431-.755.754h1.315z"/><path fill="#E3DBF4" d="M27.034 21.129c.294.01 1.248 1.243 1.082 1.518-.194.322-1.362-.36-1.63-.662-.157-.177.004-.875.548-.856zm-1.709 1.47c.084.395.761 1.566 1.089 1.382.281-.157.061-1.7-.19-1.855-.464-.286-.949.241-.899.473zm-.977-1.432c.053.4.457 1.019.798.861.292-.135.247-.935.009-1.108-.439-.322-.837.012-.807.247zm1.554 9.958c.294 0 1.098.358 1.098.875h-1.615c-.039-.234-.028-.875.517-.875zm-.718.875c0-.323-.259-.783-.754-.754-.366.022-.603.28-.56.754h1.314z"/><path fill="#F1EDFA" d="M14 24.042v5.5l-.002.144c.627.207 1.31.318 2.002.318v-7.962a2 2 0 00-2 2z"/><path fill="#E3DBF4" d="M18 29.542v-5.5a2 2 0 00-2-2v7.962c.692 0 1.391-.112 2-.319.003-.048 0-.095 0-.143z"/><path fill="#84ED82" d="M18.774 4.716L25.023.052c.233-.174.526.121.348.35l-3.8 4.895 6.122-1.42c.276-.064.429.306.188.453l-5.432 3.312 5.257 3.909c.229.17.038.527-.232.433L19.73 9.298l-.956-4.582z"/><path fill="#8FF888" d="M13.226 4.716L6.978.052c-.233-.173-.526.121-.348.35l3.8 4.895-6.122-1.42c-.276-.063-.429.307-.188.454l5.432 3.312-5.257 3.909c-.229.17-.038.527.232.433l7.744-2.686.955-4.583z"/><path fill="#F57552" d="M16 7.589a1.5 1.5 0 00-1.5 1.5V15.5c0 .499.545.941.978 1.214.16.1.341.151.522.151V7.589z"/><path fill="#EB6B48" d="M17.5 15.5V9.089a1.5 1.5 0 00-1.5-1.5v9.276c.181 0 .363-.05.522-.151.433-.272.978-.715.978-1.214z"/><path fill="#8FF888" d="M16 10.999V2s-2.739.063-3.612.75c-.86.677-1.37 3.176-1.385 6.118-.001.045-.003.087-.003.132 0 .113.02.232.049.352.87.577 1.851 1.01 2.959 1.084.624.042 1.287.559 1.992.563z"/><path fill="#84ED82" d="M20.997 8.876c-.014-2.945-.524-5.448-1.385-6.126C18.739 2.063 16 2 16 2v9c.707 0 1.373-.522 2-.565 1.105-.076 2.085-.515 2.956-1.099.027-.115.044-.228.044-.336 0-.042-.003-.082-.003-.124z"/><path fill="#E3DBF4" d="M16 11v2c1.862 0 4.589-2.108 4.956-3.664-.871.584-1.851 1.023-2.956 1.099-.627.043-1.293.565-2 .565z"/><path fill="#F1EDFA" d="M16 10.999c-.705-.004-1.368-.52-1.991-.562-1.109-.074-2.089-.507-2.959-1.084.381 1.551 3.08 3.636 4.936 3.647H16v-2.001z"/><path fill="#F57552" d="M19.754 2.231s-.814-.407-1.387.084L16.898 8c-.109.423.317.61.554.243l3.182-4.936c-.044-.761-.88-1.076-.88-1.076z"/><path fill="#F7F7F7" d="M18.598 6.464s.937.356.77 1.546a.246.246 0 01-.227.214l-1.751.106 1.208-1.866z"/><path fill="#2B3332" d="M17.79 7.708c.091.234.232.398.392.398.276 0 .5-.448.5-1 0-.23-.045-.432-.111-.601l-.781 1.203z"/><path fill="#FF805D" d="M12.245 2.231s.814-.407 1.387.084L15.102 8c.109.423-.317.61-.554.243l-3.182-4.936c.044-.761.879-1.076.879-1.076z"/><path fill="#FFF" d="M13.401 6.464s-.937.356-.77 1.546c.016.116.11.207.227.214l1.752.106-1.209-1.866z"/><path fill="#373F3F" d="M14.206 7.706c-.091.234-.228.4-.389.4-.276 0-.5-.448-.5-1 0-.23.045-.432.111-.601l.778 1.201z"/></svg>

<?xml version="1.0" encoding="utf-8"?>
<!-- Generator: Adobe Illustrator 23.0.6, SVG Export Plug-In . SVG Version: 6.00 Build 0)  -->
<svg version="1.1" xmlns="http://www.w3.org/2000/svg" xmlns:xlink="http://www.w3.org/1999/xlink" x="0px" y="0px" width="32px"
	 height="32px" viewBox="0 0 32 32" enable-background="new 0 0 32 32" xml:space="preserve">
<g id="labels">
	<g>
	</g>
</g>
<g id="icons">
	<g>
		<g>
			<path fill="#E56142" d="M19.2,26.381l0,2.619c0,0,0,1,5.167,1.333c3.422,0.221,6.094-2.154,7.509-3.783
				c0.21-0.242,0.132-0.552-0.075-0.712C27.34,29.793,22.095,27.96,19.2,26.381z"/>
			<path fill="#FF805D" d="M17,24.958c0,0,0.842,0.683,2.2,1.423l0-1.646L17,24.958z"/>
			<path fill="#6CD275" d="M31.318,25.76c-5.176,1.759-9.125,0.008-10.968-1.141l-1.15,0.116l0,1.646
				c2.896,1.579,8.14,3.412,12.601-0.543C31.676,25.74,31.503,25.698,31.318,25.76z"/>
		</g>
		<path fill="#EB6B48" d="M16,11.123c0,0-9.539-1.456-12.234-10.759C3.639-0.074,3.043-0.133,2.844,0.277
			C1.85,2.326,0,6.966,0,13.123c0,6.8,4.995,10.445,6.914,11.594c0.325,0.195,0.739-0.029,0.753-0.408
			c0.073-1.88,0.488-6.421,2.791-7.145C13.375,16.248,16,16.123,16,16.123L16,11.123z"/>
		<path fill="#E56142" d="M16,11.123c0,0,9.539-1.456,12.234-10.759c0.127-0.438,0.723-0.497,0.922-0.086
			C30.15,2.326,32,6.966,32,13.123c0,6.8-4.995,10.445-6.914,11.594c-0.325,0.195-0.739-0.029-0.753-0.408
			c-0.073-1.88-0.488-6.421-2.791-7.145C18.625,16.248,16,16.123,16,16.123L16,11.123z"/>
		<g>
			<path fill="#78DF7C" d="M27.063,20.594l-1.159-1.739c-1.234-1.85-3.049-3.237-5.158-3.94l-1.659-0.553
				c-0.35-0.117-0.605-0.413-0.67-0.776C18.146,12.071,18,8.937,18,8v0h-2v22c1.094,0,2.117-0.257,3-0.763v1.348
				c0,0.265,0.105,0.52,0.293,0.707l0.414,0.414C19.895,31.895,20.149,32,20.414,32h4.98c0.359,0,0.611-0.372,0.46-0.698
				C25.254,30,23,30,23,30s1-1,1-4c0-1.854-1.145-2.943-2.021-3.505c-0.089-2.237-0.755-3.556-1.796-5.344
				c1.281,0.78,2.335,1.885,3.009,3.234l0.951,1.903c0.455,0.909,1.603,1.214,2.449,0.65l0.001-0.001
				C27.37,22.42,27.58,21.37,27.063,20.594z"/>
			<path fill="#84ED82" d="M16,8h-2v0c0,0.937-0.146,4.071-0.416,5.585c-0.065,0.364-0.32,0.66-0.67,0.776l-1.659,0.553
				c-2.11,0.703-3.925,2.09-5.158,3.94l-1.159,1.739C4.42,21.37,4.63,22.42,5.406,22.937l0.001,0.001
				c0.846,0.564,1.994,0.259,2.449-0.65l0.951-1.903c0.674-1.349,1.729-2.454,3.009-3.234c-1.1,1.888-1.787,3.37-1.812,5.721
				C9.003,23.497,8,24.497,8,26c0,3,1,4,1,4s-2.254,0-2.854,1.302C5.995,31.628,6.247,32,6.606,32h4.98
				c0.265,0,0.52-0.105,0.707-0.293l0.414-0.414C12.895,31.105,13,30.851,13,30.586v-1.348C13.883,29.743,14.906,30,16,30V8z"/>
		</g>
		<g>
			<path fill="#D4C9EF" d="M19,23.042c-0.552,0-1,0.448-1,1v5.5v0.144c0.731-0.244,1.404-0.63,2-1.109v-4.536
				C20,23.489,19.552,23.042,19,23.042z"/>
			<path fill="#E3DBF4" d="M14,24.042c0-0.552-0.448-1-1-1s-1,0.448-1,1v4.536c0.596,0.478,1.267,0.866,1.998,1.11L14,29.542V24.042
				z"/>
		</g>
		<path fill="#F1EDFA" d="M5.649,21.985c-0.268,0.302-1.436,0.984-1.63,0.662c-0.166-0.276,0.788-1.508,1.082-1.518
			C5.646,21.11,5.807,21.808,5.649,21.985z M5.912,22.126c-0.251,0.155-0.471,1.698-0.19,1.855c0.328,0.184,1.005-0.987,1.089-1.382
			C6.86,22.367,6.376,21.84,5.912,22.126z M6.98,20.919c-0.238,0.174-0.283,0.974,0.009,1.108c0.342,0.158,0.746-0.461,0.798-0.861
			C7.818,20.932,7.42,20.598,6.98,20.919z"/>
		<path fill="#F1EDFA" d="M6.615,32H5c0-0.517,0.804-0.875,1.098-0.875C6.643,31.125,6.654,31.766,6.615,32z M8.131,32
			c0.043-0.474-0.194-0.733-0.56-0.754C7.076,31.217,6.816,31.677,6.816,32H8.131z"/>
		<path fill="#E3DBF4" d="M27.034,21.129c0.294,0.01,1.248,1.243,1.082,1.518c-0.194,0.322-1.362-0.36-1.63-0.662
			C26.329,21.808,26.49,21.11,27.034,21.129z M25.325,22.599c0.084,0.395,0.761,1.566,1.089,1.382c0.281-0.157,0.061-1.7-0.19-1.855
			C25.76,21.84,25.275,22.367,25.325,22.599z M24.348,21.167c0.053,0.4,0.457,1.019,0.798,0.861
			c0.292-0.135,0.247-0.935,0.009-1.108C24.716,20.598,24.318,20.932,24.348,21.167z"/>
		<path fill="#E3DBF4" d="M25.902,31.125C26.196,31.125,27,31.483,27,32h-1.615C25.346,31.766,25.357,31.125,25.902,31.125z
			 M25.184,32c0-0.323-0.259-0.783-0.754-0.754c-0.366,0.022-0.603,0.28-0.56,0.754H25.184z"/>
		<g>
			<path fill="#F1EDFA" d="M14,24.042v5.5c0,0.049-0.002,0.097-0.002,0.144c0.627,0.207,1.31,0.318,2.002,0.318v-7.962
				C14.895,22.042,14,22.937,14,24.042z"/>
			<path fill="#E3DBF4" d="M18,29.542v-5.5c0-1.105-0.895-2-2-2h0v7.962c0.692,0,1.391-0.112,2-0.319
				C18.003,29.637,18,29.59,18,29.542z"/>
		</g>
		<path fill="#84ED82" d="M18.774,4.716l6.249-4.664c0.233-0.174,0.526,0.121,0.348,0.35l-3.8,4.895l6.122-1.42
			c0.276-0.064,0.429,0.306,0.188,0.453l-5.432,3.312l5.257,3.909c0.229,0.17,0.038,0.527-0.232,0.433l-7.744-2.686L18.774,4.716z"
			/>
		<path fill="#8FF888" d="M13.226,4.716L6.978,0.052C6.745-0.121,6.452,0.173,6.63,0.402l3.8,4.895l-6.122-1.42
			C4.032,3.814,3.879,4.184,4.12,4.331l5.432,3.312l-5.257,3.909c-0.229,0.17-0.038,0.527,0.232,0.433l7.744-2.686L13.226,4.716z"/>
		<g>
			<path fill="#F57552" d="M16,7.589c-0.828,0-1.5,0.671-1.5,1.5V15.5c0,0.499,0.545,0.941,0.978,1.214
				c0.16,0.1,0.341,0.151,0.522,0.151L16,7.589L16,7.589z"/>
			<path fill="#EB6B48" d="M17.5,15.5V9.089c0-0.828-0.672-1.5-1.5-1.5v9.276c0.181,0,0.363-0.05,0.522-0.151
				C16.955,16.442,17.5,15.999,17.5,15.5z"/>
		</g>
		<path fill="#8FF888" d="M16,10.999V2c0,0-2.739,0.063-3.612,0.75c-0.86,0.677-1.37,3.176-1.385,6.118C11.002,8.913,11,8.955,11,9
			c0,0.113,0.02,0.232,0.049,0.352c0.87,0.577,1.851,1.01,2.959,1.084C14.632,10.478,15.295,10.995,16,10.999z"/>
		<path fill="#84ED82" d="M20.997,8.876c-0.014-2.945-0.524-5.448-1.385-6.126C18.739,2.063,16,2,16,2v9
			c0.707,0,1.373-0.522,2-0.565c1.105-0.076,2.085-0.515,2.956-1.099C20.983,9.221,21,9.108,21,9
			C21,8.958,20.997,8.918,20.997,8.876z"/>
		<path fill="#E3DBF4" d="M16,11v0.781V13c1.862,0,4.589-2.108,4.956-3.664C20.085,9.92,19.105,10.359,18,10.435
			C17.373,10.478,16.707,11,16,11z"/>
		<path fill="#F1EDFA" d="M16,10.999c-0.705-0.004-1.368-0.52-1.991-0.562c-1.109-0.074-2.089-0.507-2.959-1.084
			c0.381,1.551,3.08,3.636,4.936,3.647C15.99,12.999,15.995,13,16,13v-1.219V10.999z"/>
		<path fill="#F57552" d="M19.754,2.231c0,0-0.814-0.407-1.387,0.084L16.898,8c-0.109,0.423,0.317,0.61,0.554,0.243l3.182-4.936
			C20.59,2.546,19.754,2.231,19.754,2.231z"/>
		<path fill="#F7F7F7" d="M18.598,6.464c0,0,0.937,0.356,0.77,1.546c-0.016,0.116-0.11,0.207-0.227,0.214L17.39,8.33L18.598,6.464z"
			/>
		<path fill="#2B3332" d="M17.79,7.708c0.091,0.234,0.232,0.398,0.392,0.398c0.276,0,0.5-0.448,0.5-1
			c0-0.23-0.045-0.432-0.111-0.601L17.79,7.708z"/>
		<path fill="#FF805D" d="M12.245,2.231c0,0,0.814-0.407,1.387,0.084L15.102,8c0.109,0.423-0.317,0.61-0.554,0.243l-3.182-4.936
			C11.41,2.546,12.245,2.231,12.245,2.231z"/>
		<path fill="#FFFFFF" d="M13.401,6.464c0,0-0.937,0.356-0.77,1.546c0.016,0.116,0.11,0.207,0.227,0.214L14.61,8.33L13.401,6.464z"
			/>
		<path fill="#373F3F" d="M14.206,7.706c-0.091,0.234-0.228,0.4-0.389,0.4c-0.276,0-0.5-0.448-0.5-1c0-0.23,0.045-0.432,0.111-0.601
			L14.206,7.706z"/>
	</g>
</g>
</svg>
